;FLAVOR:Marlin
;TIME:1443
;Filament used: 0.365657m
;Layer height: 0.12
;MINX:89
;MINY:89
;MINZ:0.2
;MAXX:146
;MAXY:146
;MAXZ:8
;Generated with Cura_SteamEngine 5.2.2
M140 S60
M105
M190 S60
M104 S200
M105
M109 S200
M82 ;absolute extrusion mode
; Ender 3 Custom Start G-code
G92 E0 ; Reset Extruder
G28 ; Home all axes
G1 Z2.0 F3000 ; Move Z Axis up little to prevent scratching of Heat Bed
G1 X0.1 Y20 Z0.3 F5000.0 ; Move to start position
G1 X0.1 Y200.0 Z0.3 F1500.0 E15 ; Draw the first line
G1 X0.4 Y200.0 Z0.3 F5000.0 ; Move to side a little
G1 X0.4 Y20 Z0.3 F1500.0 E30 ; Draw the second line
G92 E0 ; Reset Extruder
G1 Z2.0 F3000 ; Move Z Axis up little to prevent scratching of Heat Bed
G1 X5 Y20 Z0.3 F5000.0 ; Move over to prevent blob squish
G92 E0
G92 E0
G1 F1500 E-6
;LAYER_COUNT:66
;LAYER:0
M107
G0 F6000 X92.857 Y105.648 Z0.2
;TYPE:SKIRT
G1 F1500 E0
G1 F1200 X93.457 Y105.136 E0.02623
G1 X94.5 Y104.269 E0.07134
G1 X96.369 Y102.625 E0.15413
G1 X98.208 Y100.912 E0.23772
G1 X100.006 Y99.14 E0.32169
G1 X101.743 Y97.328 E0.40517
G1 X103.444 Y95.45 E0.48945
G1 X105.17 Y93.431 E0.57779
G1 X105.542 Y92.983 E0.59716
G1 X106.171 Y92.288 E0.62834
G1 X106.857 Y91.649 E0.65952
G1 X107.595 Y91.07 E0.69072
G1 X108.38 Y90.556 E0.72193
G1 X109.206 Y90.112 E0.75312
G1 X110.066 Y89.739 E0.7843
G1 X110.956 Y89.44 E0.81552
G1 X111.867 Y89.219 E0.8467
G1 X112.794 Y89.076 E0.8779
G1 X113.701 Y89.013 E0.90814
G1 X114.33 Y89 E0.92906
G1 X120.45 Y89.001 E1.13262
G1 X121.152 Y89.011 E1.15597
G1 X122.088 Y89.064 E1.18715
G1 X123.016 Y89.197 E1.21833
G1 X123.93 Y89.409 E1.24954
G1 X124.823 Y89.697 E1.28074
G1 X125.687 Y90.061 E1.31193
G1 X126.518 Y90.497 E1.34314
G1 X127.308 Y91.002 E1.37432
G1 X128.052 Y91.572 E1.4055
G1 X128.745 Y92.204 E1.43669
G1 X129.348 Y92.853 E1.46616
G1 X129.755 Y93.328 E1.48696
G1 X130.72 Y94.487 E1.53712
G1 X132.375 Y96.369 E1.62048
G1 X134.087 Y98.207 E1.70402
G1 X135.86 Y100.006 E1.78803
G1 X137.671 Y101.742 E1.87147
G1 X139.55 Y103.444 E1.95579
G1 X141.588 Y105.186 E2.04497
G1 X142.024 Y105.549 E2.06384
G1 X142.719 Y106.179 E2.09504
G1 X143.357 Y106.865 E2.12619
G1 X143.935 Y107.604 E2.1574
G1 X144.448 Y108.389 E2.18859
G1 X144.892 Y109.215 E2.21978
G1 X145.264 Y110.076 E2.25097
G1 X145.562 Y110.966 E2.28219
G1 X145.782 Y111.877 E2.31336
G1 X145.924 Y112.804 E2.34455
G1 X145.985 Y113.667 E2.37333
G1 X146 Y114.33 E2.39539
G1 X145.999 Y120.427 E2.59817
G1 X145.989 Y121.148 E2.62216
G1 X145.936 Y122.084 E2.65334
G1 X145.803 Y123.012 E2.68452
G1 X145.592 Y123.926 E2.71572
G1 X145.304 Y124.819 E2.74693
G1 X144.941 Y125.683 E2.7781
G1 X144.505 Y126.514 E2.80931
G1 X144.001 Y127.304 E2.84047
G1 X143.43 Y128.049 E2.87169
G1 X142.799 Y128.742 E2.90287
G1 X142.143 Y129.352 E2.93266
G1 X141.543 Y129.864 E2.9589
G1 X140.5 Y130.731 E3.00401
G1 X138.631 Y132.375 E3.0868
G1 X136.792 Y134.088 E3.17039
G1 X134.994 Y135.86 E3.25435
G1 X133.257 Y137.672 E3.33783
G1 X131.556 Y139.55 E3.42211
G1 X129.83 Y141.569 E3.51046
G1 X129.458 Y142.017 E3.52982
G1 X128.829 Y142.712 E3.561
G1 X128.143 Y143.351 E3.59218
G1 X127.405 Y143.93 E3.62338
G1 X126.62 Y144.444 E3.65459
G1 X125.794 Y144.888 E3.68578
G1 X124.934 Y145.261 E3.71696
G1 X124.044 Y145.56 E3.74819
G1 X123.133 Y145.781 E3.77936
G1 X122.206 Y145.924 E3.81056
G1 X121.299 Y145.987 E3.8408
G1 X120.67 Y146 E3.86173
G1 X114.55 Y145.999 E4.06528
G1 X113.848 Y145.989 E4.08863
G1 X112.912 Y145.936 E4.11981
G1 X111.984 Y145.803 E4.15099
G1 X111.07 Y145.591 E4.1822
G1 X110.177 Y145.303 E4.21341
G1 X109.313 Y144.939 E4.24459
G1 X108.482 Y144.503 E4.2758
G1 X107.692 Y143.998 E4.30699
G1 X106.948 Y143.428 E4.33816
G1 X106.255 Y142.796 E4.36935
G1 X105.65 Y142.145 E4.39891
G1 X105.227 Y141.651 E4.42054
G1 X104.277 Y140.509 E4.46995
G1 X102.625 Y138.631 E4.55314
G1 X100.912 Y136.792 E4.63673
G1 X99.14 Y134.994 E4.72069
G1 X97.328 Y133.257 E4.80418
G1 X95.45 Y131.556 E4.88846
G1 X93.404 Y129.807 E4.97798
G1 X92.974 Y129.449 E4.99659
G1 X92.279 Y128.819 E5.02779
G1 X91.64 Y128.132 E5.059
G1 X91.063 Y127.393 E5.09018
G1 X90.55 Y126.608 E5.12137
G1 X90.106 Y125.782 E5.15256
G1 X89.734 Y124.921 E5.18376
G1 X89.437 Y124.031 E5.21496
G1 X89.217 Y123.119 E5.24617
G1 X89.075 Y122.192 E5.27736
G1 X89.013 Y121.299 E5.30713
G1 X89 Y120.67 E5.32806
G1 X89.001 Y114.55 E5.53161
G1 X89.011 Y113.848 E5.55496
G1 X89.064 Y112.912 E5.58614
G1 X89.197 Y111.984 E5.61732
G1 X89.409 Y111.07 E5.64853
G1 X89.697 Y110.177 E5.67974
G1 X90.061 Y109.313 E5.71092
G1 X90.497 Y108.482 E5.74213
G1 X91.002 Y107.692 E5.77332
G1 X91.572 Y106.948 E5.80449
G1 X92.204 Y106.255 E5.83568
G1 X92.857 Y105.648 E5.86534
G0 F6000 X93.117 Y105.952
G1 F1200 X93.596 Y105.542 E5.88631
G1 X94.737 Y104.593 E5.93567
G1 X96.642 Y102.917 E6.02006
G1 X98.478 Y101.207 E6.10351
G1 X100.31 Y99.4 E6.18909
G1 X102.046 Y97.591 E6.27249
G1 X103.729 Y95.733 E6.35587
G1 X105.497 Y93.664 E6.44638
G1 X105.85 Y93.239 E6.46476
G1 X106.468 Y92.557 E6.49537
G1 X107.143 Y91.931 E6.52599
G1 X107.87 Y91.366 E6.55661
G1 X108.643 Y90.866 E6.58723
G1 X109.457 Y90.435 E6.61787
G1 X110.304 Y90.076 E6.64847
G1 X111.18 Y89.793 E6.67908
G1 X112.077 Y89.586 E6.7097
G1 X112.989 Y89.458 E6.74033
G1 X113.712 Y89.413 E6.76443
G1 X114.33 Y89.4 E6.78499
G1 X120.293 Y89.4 E6.98332
G1 X121.146 Y89.411 E7.01169
G1 X122.065 Y89.464 E7.04231
G1 X122.976 Y89.597 E7.07293
G1 X123.872 Y89.808 E7.10354
G1 X124.747 Y90.096 E7.13418
G1 X125.593 Y90.459 E7.1648
G1 X126.404 Y90.894 E7.19541
G1 X127.175 Y91.398 E7.22605
G1 X127.899 Y91.966 E7.25665
G1 X128.571 Y92.596 E7.28729
G1 X129.044 Y93.113 E7.3106
G1 X129.554 Y93.71 E7.33671
G1 X130.411 Y94.741 E7.3813
G1 X132.066 Y96.622 E7.46463
G1 X133.81 Y98.495 E7.54975
G1 X135.599 Y100.31 E7.63452
G1 X137.408 Y102.045 E7.71788
G1 X139.267 Y103.729 E7.80131
G1 X141.314 Y105.478 E7.89086
G1 X141.768 Y105.856 E7.91051
G1 X142.45 Y106.475 E7.94114
G1 X143.075 Y107.151 E7.97177
G1 X143.639 Y107.878 E8.00237
G1 X144.138 Y108.652 E8.033
G1 X144.568 Y109.466 E8.06362
G1 X144.926 Y110.314 E8.09423
G1 X145.209 Y111.19 E8.12485
G1 X145.415 Y112.088 E8.15549
G1 X145.542 Y112.999 E8.18609
G1 X145.585 Y113.679 E8.20875
G1 X145.6 Y114.33 E8.23041
G1 X145.599 Y120.421 E8.433
G1 X145.589 Y121.142 E8.45698
G1 X145.536 Y122.061 E8.4876
G1 X145.404 Y122.972 E8.51821
G1 X145.193 Y123.868 E8.54883
G1 X144.905 Y124.743 E8.57947
G1 X144.543 Y125.589 E8.61007
G1 X144.108 Y126.401 E8.64071
G1 X143.605 Y127.172 E8.67133
G1 X143.036 Y127.896 E8.70196
G1 X142.407 Y128.568 E8.73257
G1 X141.883 Y129.048 E8.75621
G1 X141.404 Y129.458 E8.77718
G1 X140.263 Y130.407 E8.82654
G1 X138.358 Y132.083 E8.91093
G1 X136.522 Y133.793 E8.99438
G1 X134.69 Y135.6 E9.07996
G1 X132.954 Y137.409 E9.16335
G1 X131.271 Y139.267 E9.24673
G1 X129.503 Y141.336 E9.33725
G1 X129.15 Y141.761 E9.35563
G1 X128.532 Y142.443 E9.38624
G1 X127.857 Y143.069 E9.41686
G1 X127.13 Y143.634 E9.44748
G1 X126.357 Y144.134 E9.4781
G1 X125.543 Y144.565 E9.50874
G1 X124.696 Y144.924 E9.53933
G1 X123.82 Y145.207 E9.56995
G1 X122.923 Y145.414 E9.60057
G1 X122.011 Y145.542 E9.6312
G1 X121.288 Y145.587 E9.65529
G1 X120.67 Y145.6 E9.67585
G1 X114.556 Y145.599 E9.87921
G1 X113.854 Y145.589 E9.90256
G1 X112.935 Y145.536 E9.93317
G1 X112.024 Y145.403 E9.9638
G1 X111.128 Y145.192 E9.99441
G1 X110.253 Y144.904 E10.02505
G1 X109.407 Y144.541 E10.05567
G1 X108.596 Y144.106 E10.08628
G1 X107.825 Y143.602 E10.11691
G1 X107.101 Y143.034 E10.14752
G1 X106.429 Y142.404 E10.17816
G1 X105.953 Y141.884 E10.20161
G1 X105.53 Y141.39 E10.22324
G1 X104.586 Y140.255 E10.27234
G1 X102.917 Y138.358 E10.35638
G1 X101.207 Y136.522 E10.43982
G1 X99.4 Y134.69 E10.52541
G1 X97.591 Y132.954 E10.6088
G1 X95.733 Y131.271 E10.69218
G1 X93.671 Y129.509 E10.78239
G1 X93.229 Y129.141 E10.80152
G1 X92.548 Y128.522 E10.83213
G1 X91.923 Y127.847 E10.86273
G1 X91.358 Y127.119 E10.89338
G1 X90.86 Y126.345 E10.92399
G1 X90.43 Y125.531 E10.95461
G1 X90.072 Y124.683 E10.98522
G1 X89.789 Y123.807 E11.01584
G1 X89.584 Y122.909 E11.04648
G1 X89.457 Y121.997 E11.0771
G1 X89.413 Y121.288 E11.10073
G1 X89.4 Y120.67 E11.12129
G1 X89.401 Y114.556 E11.32464
G1 X89.411 Y113.854 E11.34799
G1 X89.464 Y112.935 E11.37861
G1 X89.597 Y112.024 E11.40923
G1 X89.808 Y111.128 E11.43985
G1 X90.096 Y110.253 E11.47049
G1 X90.459 Y109.407 E11.5011
G1 X90.894 Y108.596 E11.53171
G1 X91.398 Y107.825 E11.56235
G1 X91.966 Y107.101 E11.59296
G1 X92.596 Y106.429 E11.62359
G1 X93.117 Y105.952 E11.64709
G0 F6000 X93.377 Y106.256
G1 F1200 X93.856 Y105.846 E11.66806
G1 X94.993 Y104.899 E11.71727
G1 X96.913 Y103.21 E11.80233
G1 X98.767 Y101.484 E11.88658
G1 X100.597 Y99.68 E11.97204
G1 X102.314 Y97.889 E12.05457
G1 X104.045 Y95.978 E12.14032
G1 X105.765 Y93.966 E12.22836
G1 X106.157 Y93.494 E12.24877
G1 X106.764 Y92.826 E12.27879
G1 X107.428 Y92.213 E12.30885
G1 X108.144 Y91.662 E12.3389
G1 X108.905 Y91.176 E12.36893
G1 X109.706 Y90.76 E12.39895
G1 X110.541 Y90.416 E12.42899
G1 X111.403 Y90.147 E12.45902
G1 X112.286 Y89.955 E12.48908
G1 X113.182 Y89.842 E12.51911
G1 X113.723 Y89.813 E12.53713
G1 X114.33 Y89.8 E12.55733
G1 X120.293 Y89.8 E12.75566
G1 X121.14 Y89.811 E12.78383
G1 X122.042 Y89.864 E12.81388
G1 X122.935 Y89.996 E12.84391
G1 X123.813 Y90.207 E12.87394
G1 X124.669 Y90.495 E12.90398
G1 X125.497 Y90.857 E12.93403
G1 X126.289 Y91.291 E12.96407
G1 X127.039 Y91.794 E12.99411
G1 X127.742 Y92.36 E13.02413
G1 X128.392 Y92.987 E13.05416
G1 X128.741 Y93.373 E13.07147
G1 X129.148 Y93.848 E13.09228
G1 X130.104 Y94.997 E13.14199
G1 X131.79 Y96.913 E13.22688
G1 X133.515 Y98.766 E13.31108
G1 X135.32 Y100.597 E13.3966
G1 X137.11 Y102.313 E13.47907
G1 X139.022 Y104.045 E13.56488
G1 X141.083 Y105.807 E13.65506
G1 X141.512 Y106.164 E13.67362
G1 X142.18 Y106.771 E13.70364
G1 X142.792 Y107.436 E13.7337
G1 X143.343 Y108.152 E13.76375
G1 X143.828 Y108.913 E13.79377
G1 X144.244 Y109.715 E13.82382
G1 X144.587 Y110.55 E13.85384
G1 X144.855 Y111.413 E13.8839
G1 X145.046 Y112.296 E13.91394
G1 X145.157 Y113.192 E13.94397
G1 X145.185 Y113.691 E13.9606
G1 X145.2 Y114.33 E13.98186
G1 X145.199 Y120.415 E14.18424
G1 X145.189 Y121.136 E14.20823
G1 X145.137 Y122.038 E14.23828
G1 X145.004 Y122.931 E14.26831
G1 X144.794 Y123.81 E14.29836
G1 X144.507 Y124.666 E14.32839
G1 X144.145 Y125.493 E14.35842
G1 X143.711 Y126.285 E14.38846
G1 X143.209 Y127.036 E14.4185
G1 X142.642 Y127.739 E14.44854
G1 X142.016 Y128.39 E14.47858
G1 X141.623 Y128.744 E14.49617
G1 X141.144 Y129.154 E14.51714
G1 X140.007 Y130.101 E14.56636
G1 X138.087 Y131.79 E14.65141
G1 X136.233 Y133.516 E14.73566
G1 X134.403 Y135.32 E14.82113
G1 X132.686 Y137.111 E14.90365
G1 X130.955 Y139.022 E14.98941
G1 X129.238 Y141.03 E15.07728
G1 X128.843 Y141.506 E15.09785
G1 X128.236 Y142.174 E15.12787
G1 X127.572 Y142.787 E15.15793
G1 X126.856 Y143.338 E15.18798
G1 X126.095 Y143.824 E15.21801
G1 X125.294 Y144.24 E15.24803
G1 X124.459 Y144.584 E15.27807
G1 X123.597 Y144.853 E15.3081
G1 X122.714 Y145.045 E15.33816
G1 X121.818 Y145.158 E15.3682
G1 X121.277 Y145.187 E15.38622
G1 X120.67 Y145.2 E15.40641
G1 X114.562 Y145.199 E15.60956
G1 X113.86 Y145.189 E15.63291
G1 X112.958 Y145.136 E15.66297
G1 X112.065 Y145.004 E15.69299
G1 X111.187 Y144.793 E15.72302
G1 X110.331 Y144.505 E15.75306
G1 X109.503 Y144.143 E15.78312
G1 X108.711 Y143.709 E15.81316
G1 X107.961 Y143.206 E15.84319
G1 X107.258 Y142.64 E15.87321
G1 X106.608 Y142.013 E15.90325
G1 X106.257 Y141.624 E15.92067
G1 X105.736 Y141.014 E15.94736
G1 X104.892 Y139.999 E15.99126
G1 X103.21 Y138.087 E16.07596
G1 X101.484 Y136.233 E16.16021
G1 X99.68 Y134.403 E16.24568
G1 X97.889 Y132.686 E16.3282
G1 X95.978 Y130.955 E16.41396
G1 X93.945 Y129.217 E16.50292
G1 X93.485 Y128.834 E16.52283
G1 X92.817 Y128.226 E16.55287
G1 X92.206 Y127.562 E16.58288
G1 X91.655 Y126.846 E16.61293
G1 X91.17 Y126.084 E16.64297
G1 X90.755 Y125.282 E16.67301
G1 X90.411 Y124.447 E16.70304
G1 X90.144 Y123.584 E16.73309
G1 X89.953 Y122.701 E16.76314
G1 X89.841 Y121.805 E16.79317
G1 X89.813 Y121.277 E16.81076
G1 X89.8 Y120.67 E16.83095
G1 X89.801 Y114.562 E17.0341
G1 X89.811 Y113.86 E17.05745
G1 X89.864 Y112.958 E17.08751
G1 X89.996 Y112.065 E17.11753
G1 X90.207 Y111.187 E17.14756
G1 X90.495 Y110.331 E17.1776
G1 X90.857 Y109.503 E17.20766
G1 X91.291 Y108.711 E17.2377
G1 X91.794 Y107.961 E17.26773
G1 X92.36 Y107.258 E17.29775
G1 X92.987 Y106.608 E17.32779
G1 X93.377 Y106.256 E17.34526
G1 F1500 E11.34526
;MESH:Stepper_Motor_28BYJ-48_Cog_v1.stl
G0 F6000 X100.414 Y113.335
G0 X103.95 Y120.047
;TYPE:WALL-INNER
G1 F1500 E17.34526
G1 F1329.6 X103.55 Y120.074 E17.3573
G1 F1344.5 X103.037 Y120.049 E17.37254
G1 F1286.9 X102.607 Y119.944 E17.38627
G1 F1227.6 X102.198 Y119.757 E17.40089
G1 F1200 X101.829 Y119.495 E17.41594
G1 X101.508 Y119.174 E17.43104
G1 X101.245 Y118.805 E17.44611
G1 X101.052 Y118.383 E17.46155
G1 F1246.8 X100.953 Y117.95 E17.47577
G1 F1329.6 X100.926 Y117.552 E17.48774
G1 F1344.5 X100.951 Y117.034 E17.50314
G1 F1276.6 X101.058 Y116.604 E17.51699
G1 F1227.6 X101.245 Y116.195 E17.53161
G1 F1209.1 X101.508 Y115.826 E17.54657
G1 F1200 X101.826 Y115.508 E17.56153
G1 X102.196 Y115.244 E17.57665
G1 X102.621 Y115.049 E17.5922
G1 F1246.8 X103.05 Y114.953 E17.60627
G1 F1329.6 X103.45 Y114.926 E17.61831
G1 F1344.5 X103.963 Y114.951 E17.63355
G1 F1263.2 X104.341 Y115.043 E17.64584
G1 F1206 X104.435 Y115.075 E17.64913
G1 F1200 X104.804 Y115.244 E17.66263
G1 X105.174 Y115.508 E17.67775
G1 X105.493 Y115.827 E17.69275
G1 X105.758 Y116.202 E17.70802
G1 X105.944 Y116.608 E17.72288
G1 X106.064 Y117.045 E17.73795
G1 X106.104 Y117.5 E17.75314
G1 X106.064 Y117.955 E17.76833
G1 X105.943 Y118.394 E17.78348
G1 X105.758 Y118.798 E17.79826
G1 X105.493 Y119.173 E17.81353
G1 X105.171 Y119.495 E17.82868
G1 X104.802 Y119.756 E17.84371
G1 X104.379 Y119.951 E17.8592
G1 F1246.8 X103.95 Y120.047 E17.87327
G0 F6000 X103.518 Y119.7
;TYPE:WALL-OUTER
G1 F1200 X103.098 Y119.664 E17.8873
G1 X102.763 Y119.573 E17.89884
G1 X102.384 Y119.398 E17.91273
G1 X102.099 Y119.196 E17.92434
G1 X101.804 Y118.9 E17.93824
G1 X101.602 Y118.615 E17.94986
G1 X101.439 Y118.267 E17.96264
G1 X101.332 Y117.884 E17.97587
G1 X101.3 Y117.484 E17.98922
G1 X101.336 Y117.098 E18.00211
G1 X101.439 Y116.733 E18.01472
G1 X101.602 Y116.385 E18.02751
G1 X101.804 Y116.1 E18.03912
G1 X102.1 Y115.804 E18.05305
G1 X102.385 Y115.602 E18.06467
G1 X102.763 Y115.427 E18.07852
G1 X103.116 Y115.332 E18.09068
G1 X103.482 Y115.3 E18.1029
G1 X103.902 Y115.336 E18.11692
G1 X104.268 Y115.439 E18.12957
G1 X104.615 Y115.602 E18.14232
G1 X104.9 Y115.804 E18.15394
G1 X105.196 Y116.1 E18.16786
G1 X105.398 Y116.385 E18.17948
G1 X105.572 Y116.763 E18.19332
G1 X105.664 Y117.098 E18.20487
G1 X105.7 Y117.52 E18.21896
G1 X105.664 Y117.902 E18.23172
G1 X105.561 Y118.267 E18.24433
G1 X105.398 Y118.615 E18.25712
G1 X105.174 Y118.926 E18.26986
G1 X104.901 Y119.196 E18.28263
G1 X104.616 Y119.398 E18.29425
G1 X104.237 Y119.573 E18.30814
G1 X103.884 Y119.668 E18.3203
G1 X103.518 Y119.7 E18.33252
G0 F6000 X103.543 Y119.997
G0 X104.014 Y120.226
G0 X109.986 Y120.226
G0 X109.457 Y119.986
G0 X110.037 Y120.049
;TYPE:WALL-INNER
G1 F1286.9 X109.607 Y119.944 E18.34624
G1 F1227.6 X109.198 Y119.757 E18.36086
G1 F1200 X108.829 Y119.495 E18.37592
G1 X108.507 Y119.173 E18.39106
G1 X108.242 Y118.798 E18.40634
G1 X108.057 Y118.394 E18.42111
G1 X107.936 Y117.955 E18.43626
G1 X107.896 Y117.5 E18.45145
G1 X107.936 Y117.045 E18.46664
G1 X108.056 Y116.607 E18.48175
G1 X108.242 Y116.202 E18.49657
G1 X108.507 Y115.827 E18.51184
G1 X108.826 Y115.508 E18.52685
G1 X109.196 Y115.244 E18.54197
G1 X109.621 Y115.049 E18.55752
G1 F1246.8 X110.05 Y114.953 E18.57159
G1 F1329.6 X110.45 Y114.926 E18.58363
G1 F1344.5 X110.963 Y114.951 E18.59887
G1 F1286.9 X111.393 Y115.056 E18.6126
G1 F1243.5 X111.804 Y115.244 E18.62711
G1 F1215.2 X112.174 Y115.508 E18.64204
G1 F1200 X112.493 Y115.827 E18.65704
G1 X112.759 Y116.203 E18.67236
G1 X112.944 Y116.612 E18.68729
G1 X113.063 Y117.052 E18.70245
G1 X113.1 Y117.522 E18.71813
G1 X113.062 Y117.948 E18.73236
G1 X112.945 Y118.385 E18.7474
G1 X112.759 Y118.796 E18.76241
G1 X112.522 Y119.132 E18.77608
G1 X112.457 Y119.209 E18.77943
